src/components/Icon/utils/svgsOptimized/panel-left.svg

<svg width="24" height="24" viewBox="0 0 24 24"  xmlns="http://www.w3.org/2000/svg">
<path d="M17.3905 6H6.5995C6.26978 6 6 6.26978 6 6.5995V17.4005C6 17.7302 6.26978 18 6.5995 18H17.4005C17.7302 18 18 17.7302 18 17.4005V6.5995C18 6.26978 17.7302 6 17.4005 6H17.3905ZM7.199 7.199H9.3955V16.791H7.199V7.199ZM16.791 16.791H10.5945V7.199H16.791V16.791Z" />
</svg>

<?xml version="1.0" encoding="utf-8"?><svg width="24" height="24" xmlns="http://www.w3.org/2000/svg" viewBox="0 0 24 24"><path d="M17.39 6H6.6c-.33 0-.6.27-.6.6v10.8c0 .33.27.6.6.6h10.8c.33 0 .6-.27.6-.6V6.6c0-.33-.27-.6-.6-.6h-.01ZM7.2 7.199h2.197v9.592H7.199V7.199Zm9.592 9.592h-6.197V7.199h6.197v9.592Z"/></svg>
